X:1
T:Give Thanks to God
T:Give Thanks to God
T:Ira Evans Hicks
T:Ira Evans Hicks, 1903
T:Public Domain Courtesy of the Cyber Hymnal™
C:Ira Evans Hicks
Z:Public Domain
Z:Courtesy of the Cyber Hymnal™
%%score ( 1 2 ) ( 3 4 )
L:1/8
Q:1/4=90
M:3/4
K:Bb
V:1 treble 
V:2 treble 
V:3 bass 
V:4 bass 
V:1
 [DF][DF] [B,D] | [DB]3 [EA] [DB][DG] | [EA]3 [EA] [EA][CE] | [EA]3 [EG] [DF][CE] | %4
w: 1.~Give thanks to|God, for He is|good, His mer- cy|ev- er doth en-|
w: 2.~Let now the|house of Aa- ron|say His mer- cy|ev- er doth en-|
w: 3.~In my dis-|tress I called on|God; Je- ho- vah|heard my ear- nest|
 [B,D]3 [DF] [DF][B,D] | [DB]3 [Fd] [^Fd][Fc] | [GB]3 [EG] [DF][Ge] | [Fd]3 [DB] [EA][Ec] | %8
w: dure; Let all of|Is- ra- el now|say His mer- cy|ev- er- more is|
w: dure; Let them that|fear the Lord now|say His mer- cy|ev- er doth en-|
w: prayer; And since the|Lord is on my|side, What man can|do I will not|
 [DB]3 z ||[Q:1/4=80]"^Refrain" [DF][DB] | [Fd]<[Fd] [Fd]<[Fd] [Ec]>[DB] | F4 [FA][FB] | %12
w: sure.||||
w: dure.|It is|bet- ter to trust in the|Lord, It is|
w: fear.||||
 [Fc]<[Fc] [Fc]<[Ge] [Fd]>[Fc] | [Fd]4 [DF][DB] | [Fd]<[Fd] [Fd]<[_Af] [Ge]>[Fd] | %15
w: |||
w: bet- ter to trust in the|Lord, It is|bet- ter to trust in the|
w: |||
 (c2 G2) [EG][EG] | [DF][Ge] [Fd][DB] [EA][Ec] | [DB]4 |] %18
w: |||
w: Lord, * Than to|put your con- fi- dence in|man.|
w: |||
V:2
 x3 | x6 | x6 | x6 | x6 | x6 | x6 | x6 | x4 || x2 | x6 | (D2 B2) x2 | x6 | x6 | x6 | E4 x2 | x6 | %17
 x4 |] %18
V:3
 [B,,B,][B,,B,] [B,,B,] | [B,,F,]3 [B,,F,] [B,,F,][B,,F,] | [C,F,]3 [C,F,] [C,F,][C,A,] | %3
w: ~ ~ ~|~ ~ ~ ~|~ ~ ~ ~|
 F,3 [F,A,] [F,B,][F,A,] | [B,,B,]3 [B,,B,] [B,,B,][B,,B,] | [B,,F,]3 [B,,B,] [B,,B,][D,B,] | %6
w: ~ ~ ~ ~|~ ~ ~ ~|~ ~ ~ ~|
 [E,B,]3 [E,B,] [F,B,][F,B,] | [F,B,]3 [F,B,] [F,C][F,A,] | [B,,B,]3 z || [B,,B,][B,,B,] | %10
w: ~ ~ ~ ~|~ ~ ~ ~|~|~ ~|
 [B,,B,]<[B,,B,] [B,,B,]<[B,,B,] [B,,B,]<[B,,B,] | [B,,B,]>[B,,B,] [B,,D]2 [F,C][F,B,] | %12
w: ~ ~ ~ ~ ~ ~|~ our God, ~ ~|
 [F,A,]<[F,A,] [F,A,]<[F,A,] [F,B,]>[F,A,] | [B,,B,]>[F,A,] [B,,B,]2 [B,,B,][B,,B,] | %14
w: ~ ~ ~ ~ ~ ~|~ our God, ~ ~|
 [B,,B,]<[B,,B,] [B,,B,]<[B,,B,] [C,A,]>[D,B,] | [E,B,]>[E,B,] [E,B,]2 [E,B,][E,B,] | %16
w: ~ ~ ~ ~ ~ ~|~ our God, * *|
 [F,B,][F,A,] [F,B,][F,B,] [F,C][F,A,] | [B,,B,]4 |] %18
w: ||
V:4
 x3 | x6 | x6 | F,3 x3 | x6 | x6 | x6 | x6 | x4 || x2 | x6 | x6 | x6 | x6 | x6 | x6 | x6 | x4 |] %18

